!!!COM:      Bach, Johann Sebastian
!!!CDT:      1685/03/31/-1750/07/28/
!!!OPR@@GER: Das wohltemperirte Clavier
!!!OVM@@GER: Band II
!!!OPR@ENG:  Well-Tempered Clavier
!!!OVM@ENG:  Book II
!!!OTL:      Prelude
!!!OKY:      G major
!!!ONM:      no. 15
!!!SCT:      BWV 884
!!!OMV:      1
**kern	**kern	**kern
*>[A,A,B,B]	*>[A,A,B,B]	*>[A,A,B,B]
*>norep[A,B]	*>norep[A,B]	*>norep[A,B]
*>A	*>A	*>A
*clefF4	*clefF4	*clefG2
*k[f#]	*k[f#]	*k[f#]
*G:	*G:	*G:
*M3/4	*M3/4	*M3/4
*MM86	*MM86	*MM86
=1-	=1-	=1-
[2.G	8B	16g
.	.	16dd
.	8A	16f#
.	.	16dd
.	8B	16g
.	.	16dd
.	8c	16a
.	.	16dd
.	8d	16b
.	.	16dd
.	8e	16cc
.	.	16dd
=2	=2	=2
2.G_	8d	16b
.	.	16dd
.	8c	16a
.	.	16dd
.	8B	16g
.	.	16dd
.	8e	16cc
.	.	16dd
.	8d	16b
.	.	16dd
.	8c	16a
.	.	16dd
=3	=3	=3
2.G]	8d	16b
.	.	16dd
.	8c	16a
.	.	16dd
.	8B	16g
.	.	16dd
.	8d	16b
.	.	16dd
.	8c	16a
.	.	16dd
.	8B	16g
.	.	[16dd
=4	=4	=4
*	*staff:14	*
*	*clefG2	*
16D	8f#	2.dd_
16A	.	.
16C#	8e	.
16A	.	.
16D	8f#	.
16A	.	.
16E	8g	.
16A	.	.
16F#	8a	.
16A	.	.
16G	8b	.
16A	.	.
=5	=5	=5
16F#	8a	2.dd_
16A	.	.
16E	8g	.
16A	.	.
16D	8f#	.
16A	.	.
16G	8b	.
16A	.	.
16F#	8a	.
16A	.	.
16E	8g	.
16A	.	.
=6	=6	=6
16F#	8a	2.dd_
16A	.	.
16E	8g	.
16A	.	.
16D	8f#	.
16A	.	.
16F#	8a	.
16A	.	.
16E	8g	.
16A	.	.
16D	8f#	.
16A	.	.
=7	=7	=7
16AA	4e	8dd]
16A	.	.
16G#	.	8b
16A	.	.
16AA	2a	8cc
16A	.	.
16BB	.	8dd
16A	.	.
16C	.	8ee
16A	.	.
16D	.	8ff#
16A	.	.
=8	=8	=8
16E	2.ryy	16g
16e	.	16gg
16d	.	16ff#
16e	.	16gg
16E	.	16g
16e	.	16gg
16F#	.	16a
16e	.	16gg
16G	.	16b
16e	.	16gg
16A	.	16cc#
16e	.	16gg
=9	=9	=9
16d	2.ryy	16ff#
16B	.	16dd
16A	.	16cc#
16B	.	16dd
8G	.	16bb
.	.	16b
8f#	.	16aa
.	.	16b
8e	.	16gg
.	.	16b
8d	.	16ff#
.	.	16b
=10	=10	=10
16c#	2.ryy	16ee
16A	.	16cc#
16G	.	16b
16A	.	16cc#
8F#	.	16aa
.	.	16a
8e	.	16gg
.	.	16a
8d	.	16ff#
.	.	16a
8c#X	.	16ee
.	.	16a
=11	=11	=11
16B	2.ryy	16dd
16G	.	16b
16F#	.	16a
16G	.	16b
8E	.	16gg
.	.	16g
8d	.	16ff#
.	.	16g
8c#	.	16ee
.	.	16g
8B	.	16dd
.	.	16g
=12	=12	=12
8A	2.ryy	16cc#
.	.	16g
8B	.	16dd
.	.	16g
8c#	.	16ee
.	.	16g
8e	.	16dd
.	.	16g
8A	.	16cc#X
.	.	16g
8c#	.	16b
.	.	16g
=13	=13	=13
8F#	2.ryy	16a
.	.	16g
8A	.	16f#
.	.	16e
16D	.	8f#
16E	.	.
16F#	.	8dd
16G	.	.
8A	.	8e
8AA	.	8cc#
=14	=14	=14
8BB	2.ryy	16d
.	.	16e
8D	.	16fn
.	.	16d
8Fn	.	16g#
.	.	16d
8AA	.	16a
.	.	16d
8GG#	.	16b
.	.	16d
8E	.	16c#
.	.	16B
=15	=15	=15
16AA	2.ryy	16c#
16C#	.	16e
16E	.	4a
16G	.	.
8F#X	.	.
8D	.	16g
.	.	16f#
8AM	.	16g
.	.	16f#
8AA	.	16e
.	.	16f#
=16	=16	=16
8D	2.ryy	8d
8DD	.	16c#
.	.	16B
8FF#	.	16A
.	.	16G
8AA	.	16F#
.	.	16E
4D	.	4DM
=17:||:	=17:||:	=17:||:
*>B	*>B	*>B
*	*staff:7	*
*	*clefF4	*
[2.D	8A	16f#
.	.	16d
.	8G	16e
.	.	16d
.	8A	16f#
.	.	16d
.	8B	16g
.	.	16d
.	8c	16a
.	.	16d
.	8B	16g
.	.	16d
=18	=18	=18
2.D_	8A	16f#
.	.	16d
.	8G	16e
.	.	16d
.	8A	16f#
.	.	16d
.	8B	16g
.	.	16d
.	8c	16a
.	.	16d
.	8A	16f#
.	.	16d
=19	=19	=19
2.D]	8B	16g
.	.	16d
.	8A	16f#
.	.	16d
.	8B	16g
.	.	16d
.	8G	16b
.	.	16d
.	8A	16a
.	.	16d
.	8F#	16cc
.	.	16d
=20	=20	=20
16GG	2.ryy	8b
16G	.	.
16F#	.	8aW
16G	.	.
16B	.	8g
16G	.	.
16c	.	8a
16G	.	.
16d	.	8b
16G	.	.
16c	.	8cc
16G	.	.
=21	=21	=21
16B	2.ryy	8dd
16G	.	.
16A	.	8cc
16G	.	.
16B	.	8dd
16G	.	.
16c	.	8ee
16G	.	.
16d	.	8ffn
16G	.	.
16B	.	8dd
16G	.	.
=22	=22	=22
16c	2.ryy	8ee
16G	.	.
16B	.	8gg
16G	.	.
16c	.	8ee
16G	.	.
16e	.	8cc
16G	.	.
16d	.	8dd
16G	.	.
16fn	.	8b
16G	.	.
=23	=23	=23
16e	2.ryy	16cc
16c	.	16ee
16B	.	16dd#
16c	.	16ee
8F#X	.	16aa
.	.	16cc
8e	.	16gg
.	.	16cc
8d#	.	16ff#
.	.	16cc
8f#	.	16ee
.	.	16cc
=24	=24	=24
16B	2.ryy	16dd#
16d#	.	16b
16c#	.	16a#
16d#	.	16b
8E	.	16gg
.	.	16b
8F#	.	16ff#
.	.	16b
8G	.	16ee
.	.	16b
8E	.	16ddn
.	.	16b
=25	=25	=25
16A	2.ryy	16cc
16c	.	16a
16B	.	16g
16c	.	16a
16A	.	16f#
16c	.	16a
16G	.	16e
16c	.	16a
16F#	.	16d#
16c	.	16a
16E	.	16e
16c	.	16a
=26	=26	=26
16D#	2.ryy	8f#
16B	.	.
16BB	.	8dd#
16B	.	.
16C#	.	8ee
16B	.	.
16D#X	.	8ff#S
16B	.	.
16E	.	8gg
16B	.	.
16F#	.	8dd#X
16B	.	.
=27	=27	=27
16G	2.ryy	16ee
16B	.	16b
16A	.	16cc
16c	.	16a
16B	.	8g
16A	.	.
16G	.	8ee
16A	.	.
8B	.	8f#
8BB	.	8dd#S
=28	=28	=28
[4EM	2.ryy	16ee
.	.	16b
.	.	16g
.	.	16b
16E]	.	[4e
16BB	.	.
16GG	.	.
16BB	.	.
8EE	.	16e]
.	.	16g
8r	.	16b
.	.	16dd
=29	=29	=29
16r	2.ryy	8cc#
16AA	.	.
16C#	.	8a
16AA	.	.
16E	.	8cc#
16AA	.	.
16G	.	8ee
16AA	.	.
16F#	.	8aa
16AA	.	.
16E	.	8gg
16AA	.	.
=30	=30	=30
16D	2.ryy	8ff#
16AA	.	.
16FF#	.	8aa
16AA	.	.
16DD	.	8ff#
16FF#	.	.
16AA	.	8dd
16D	.	.
16F#	.	8a
16A	.	.
16F#	.	8ccn
16D	.	.
=31	=31	=31
16G	2.ryy	8b
16GG	.	.
16BB	.	8g
16GG	.	.
16D	.	8b
16GG	.	.
16Fn	.	8dd
16GG	.	.
16E	.	8gg
16GG	.	.
16D	.	8ffn
16GG	.	.
=32	=32	=32
16C	2.ryy	[4eeM
16GG	.	.
16EE	.	.
16GG	.	.
8CC	.	16ee]
.	.	16dd
8r	.	16cc
.	.	16b
4r	.	16a
.	.	16g
.	.	16f#X
.	.	16e
=33	=33	=33
16r	2.ryy	8f#
16C	.	.
16BB	.	[8ddM
16AA	.	.
8BB	.	16dd]
.	.	16cc
8D	.	16b
.	.	16a
8E	.	16g
.	.	16f#
[8G	.	16e
.	.	16d
=34	=34	=34
16G]	2.ryy	8e
16BB	.	.
16AA	.	[8ccM
16GG	.	.
8AA	.	16cc]
.	.	16b
8C	.	16a
.	.	16g
8D	.	16f#
.	.	16e
[8F#	.	16d
.	.	16c
=35	=35	=35
16F#]	2.ryy	16d
16AA	.	16f#
16GG	.	16e
16FF#	.	16d
8GG	.	16e
.	.	16f#
8BB	.	16g
.	.	16a
8D	.	16b
.	.	16a
8G	.	16b
.	.	16g
=36	=36	=36
8F#	2.ryy	16a
.	.	16dd
8D	.	16cc
.	.	16b
8F#	.	16a
.	.	16g
8A	.	16f#
.	.	16e
16d	.	[4d
16D	.	.
16C	.	.
16D	.	.
=37	=37	=37
16BB	2.ryy	16d]
16D	.	16g
16AA	.	16c
16D	.	16g
16BB	.	16d
16D	.	16g
16GG	.	16B
16D	.	16g
16AA	.	16c
16D	.	16g
16BB	.	16d
16D	.	16g
=38	=38	=38
16C	2.ryy	16e
16E	.	16g
16BB	.	16d
16E	.	16g
16C#	.	16e
16E	.	16a
16AA	.	16c#
16E	.	16a
16BB	.	16d
16E	.	16a
16C#X	.	16e
16E	.	16a
=39	=39	=39
16D	2.ryy	16f#
16F#	.	16a
16C#	.	16e
16F#	.	16a
16D#	.	16f#
16F#	.	16b
16BB	.	16d#
16F#	.	16b
16C#X	.	16e
16F#	.	16b
16D#X	.	16f#
16F#	.	16b
=40	=40	=40
16E	2.ryy	16g
16G	.	16b
16Dn	.	16f#
16G	.	16b
16Cn	.	8e
16G	.	.
16BB	.	8g
16G	.	.
16AA	.	[4ccM
16C	.	.
16E	.	.
16G	.	.
=41	=41	=41
8F#	2.ryy	16cc]
.	.	16aa
8A	.	16gg
.	.	16aa
8D	.	16ff#
.	.	16aa
8E	.	16ee
.	.	16aa
8F#	.	16dd
.	.	16aa
8D	.	16cc
.	.	16aa
=42	=42	=42
16G	2.ryy	8b
16g	.	.
16fn	.	8dd
16g	.	.
16e	.	8gg
16g	.	.
16d	.	8ffn
16g	.	.
16c	.	8ee
16g	.	.
16B	.	8dd
16g	.	.
=43	=43	=43
16c	2.ryy	16ee
16e	.	16cc
16d	.	16b
16e	.	16cc
8A	.	16ccc
.	.	16cc
8B	.	16bb
.	.	16cc
8c	.	16aa
.	.	16cc
8A	.	16gg
.	.	16cc
=44	=44	=44
8d	2.ryy	16ff#
.	.	16cc
8A	.	16gg
.	.	16cc
8F#	.	16aa
.	.	16cc
8A	.	16gg
.	.	16cc
8D	.	16ff#
.	.	16cc
8F#	.	16ee
.	.	16cc
=45	=45	=45
8BB	2.ryy	16dd
.	.	16cc
8D	.	16b
.	.	16a
16GG	.	8b
16AA	.	.
16BB	.	8gg
16C	.	.
8D	.	8a
8DD	.	8ff#S
=46	=46	=46
8EE	2.ryy	16g
.	.	16a
8G	.	16b-
.	.	16g
8B-	.	16cc#
.	.	16g
8D	.	16dd
.	.	16g
8C#	.	16ee
.	.	16g
8AA	.	16f#
.	.	16e
=47	=47	=47
16D	2.ryy	16f#
16F#	.	16a
16A	.	4dd
16c	.	.
8B	.	.
8G	.	16cc
.	.	16b
8d	.	16cc
.	.	16b
8D	.	16a
.	.	16b
=48	=48	=48
8G	2.ryy	8g
8GG	.	16f#
.	.	16e
8BB	.	16d
.	.	16c
8D	.	16B
.	.	16A
4G	.	4GM
==:|	==:|	==:|
*-	*-	*-
!!!AFR:  prelude
!!!EFL:  77/96
!!!END:  1994/02/11/
!!!VID:  2422494126 Bach, BWV 884-01
!!!AST:  Baroque
!!!OCY:  Deutschland
!!!ODT:  1742///
!!!PDT:  1801///
!!!EED:  Walter Hewlett
!!!ENC:  Walter Hewlett
!!!YOR:  Bach Gesellschaft Edition xiv
!!!AFT:  enhanced SCORE
!!!RDT:  2011/10/07/ by Andreas Kornstaedt using massScr2hmd
!!!SCA1: Thematisch-systematisches Verzeichnis der musikalischen Werke 
!!!SCA2: Johann Sebastian Bach: Bach-Werke-Verzeichnis (Schmieder)
!!!YEC1: Copyright 1994, 2000 Center for Computer Assisted Research 
!!!YEC2: in the Humanities
!!!YEM1: Rights to all derivative editions reserved.
!!!YEM2: Refer to licensing agreement for further details.
!!!YEN:  United States of America
!!!ref:  @{OTL}, @{SCT}
!!muse2ps: T^@{OTL} @{ONM} in @{OKY}^C^J.S. Bach\n@{SCT}-@{OMV}^
!!muse2ps: u^@{OPR@ENG}, @{OVM@ENG}^j
